src/components/Icon/utils/svgsOptimized/plus.svg

<?xml version="1.0" encoding="utf-8"?><svg width="24" height="24" xmlns="http://www.w3.org/2000/svg" viewBox="0 0 24 24"><path d="M16.5 11.25h-3.75V7.5c0-.41-.34-.75-.75-.75s-.75.34-.75.75v3.75H7.5c-.41 0-.75.34-.75.75s.34.75.75.75h3.75v3.75c0 .41.34.75.75.75s.75-.34.75-.75v-3.75h3.75c.41 0 .75-.34.75-.75s-.34-.75-.75-.75Z"/></svg>

<svg width="24" height="24" viewBox="0 0 24 24"  xmlns="http://www.w3.org/2000/svg">
<path d="M16.5 11.25H12.75V7.5C12.75 7.09 12.41 6.75 12 6.75C11.59 6.75 11.25 7.09 11.25 7.5V11.25H7.5C7.09 11.25 6.75 11.59 6.75 12C6.75 12.41 7.09 12.75 7.5 12.75H11.25V16.5C11.25 16.91 11.59 17.25 12 17.25C12.41 17.25 12.75 16.91 12.75 16.5V12.75H16.5C16.91 12.75 17.25 12.41 17.25 12C17.25 11.59 16.91 11.25 16.5 11.25Z" />
</svg>
